X:282
T:B282-  Let Traitors Plot On
Q:1/4=120
L:1/4
M:3/4
K:F
F/G/|A3/2 B/c|G3/2 A/B|A(B/A/) (G/F/)|E2F|\
D3/2 E/F|G3/2 A/ G/F/|EC2|zzG/A/|\
^F3/2 G/A|B2c/c/|d(c/B/) (A/G/)|^F2d|\
_e(d/c/) (B/A/)|B3/2 A/G|GG2|zzc|\
c(B/A/)B|A3/2=B/c|=B3/2 ^c/d|^c2(B/A/)|\
B(A/G/) (F/E/)|E3/2 D/C|D2z|zzG/G/|\
D3/2 E/F|E2D/C/|cBA|d2(A/B/)|\
cGA|B3/2 c/A|G3/2 F/E|F2||"Chorus:"c|\
AAB|G2A|FFG|E2(D/C/)|\
F(E/D/)G|FGA|A3/2 G/^F|G2(A/B/)|\
c(d/c/) B/A/|B3/2 B/c|def|e2d/c/|\
d2d/A/|B2(A/G/)|G3/2 F/E|F2|]

